categories/symbolic/application-content-sex-nudity-symbolic.svg

<?xml version="1.0" encoding="UTF-8" standalone="no"?>
<svg
   xmlns:dc="http://purl.org/dc/elements/1.1/"
   xmlns:cc="http://creativecommons.org/ns#"
   xmlns:rdf="http://www.w3.org/1999/02/22-rdf-syntax-ns#"
   xmlns:svg="http://www.w3.org/2000/svg"
   xmlns="http://www.w3.org/2000/svg"
   id="svg6"
   version="1.1"
   width="16"
   height="16">
  <metadata
     id="metadata12">
    <rdf:RDF>
      <cc:Work
         rdf:about="">
        <dc:format>image/svg+xml</dc:format>
        <dc:type
           rdf:resource="http://purl.org/dc/dcmitype/StillImage" />
        <dc:title />
      </cc:Work>
    </rdf:RDF>
  </metadata>
  <defs
     id="defs10" />
  <g
     id="g4"
     transform="translate(-872 -552)"
     color="#000" />
  <path
     id="path10"
     d="m 5,0.0625 c -1.1045695,0 -2,0.8954305 -2,2 C 3.001132,2.9788312 3.6248433,3.7771817 4.5136719,4 H 4 3 C 2.446,4 2,4.446 2,5 v 1 h 1 4 2 4 1 V 5 C 14,4.446 13.554,4 13,4 H 12 11.490234 C 12.377512,3.7756699 12.999319,2.9776969 13,2.0625 c 0,-1.1045695 -0.895431,-2 -2,-2 -1.1045695,0 -2,0.8954305 -2,2 C 9.001132,2.9788313 9.6248432,3.7771818 10.513672,4 H 10 9 C 8.446,4 8,4.446 8,5 8,4.446 7.554,4 7,4 H 6 5.4902344 C 6.377512,3.7756697 6.9993195,2.9776968 7,2.0625 c 0,-1.1045695 -0.8954305,-2 -2,-2 z M 3,12 v 3 c 0,0.554 0.446,1 1,1 h 2 c 0.554,0 1,-0.446 1,-1 v -3 z m 6,0 v 3 c 0,0.554 0.446,1 1,1 h 2 c 0.554,0 1,-0.446 1,-1 v -3 z"
     style="opacity:0.75;fill:#666666;fill-opacity:1;stroke:none;stroke-width:6.66666651;stroke-opacity:1" />
  <rect
     y="7"
     x="1"
     height="4"
     width="14"
     id="rect3758"
     style="fill:#666666;fill-opacity:1;stroke:none;stroke-width:10;stroke-opacity:1" />
</svg>

<?xml version="1.0" encoding="UTF-8" standalone="no"?>
<svg
   xmlns:dc="http://purl.org/dc/elements/1.1/"
   xmlns:cc="http://creativecommons.org/ns#"
   xmlns:rdf="http://www.w3.org/1999/02/22-rdf-syntax-ns#"
   xmlns:svg="http://www.w3.org/2000/svg"
   xmlns="http://www.w3.org/2000/svg"
   xmlns:sodipodi="http://sodipodi.sourceforge.net/DTD/sodipodi-0.dtd"
   xmlns:inkscape="http://www.inkscape.org/namespaces/inkscape"
   height="16"
   width="16"
   version="1.1"
   id="svg6"
   sodipodi:docname="sex-nudity.svg"
   inkscape:version="0.92.5 (2060ec1f9f, 2020-04-08)">
  <metadata
     id="metadata12">
    <rdf:RDF>
      <cc:Work
         rdf:about="">
        <dc:format>image/svg+xml</dc:format>
        <dc:type
           rdf:resource="http://purl.org/dc/dcmitype/StillImage" />
        <dc:title></dc:title>
      </cc:Work>
    </rdf:RDF>
  </metadata>
  <defs
     id="defs10" />
  <sodipodi:namedview
     pagecolor="#ffffff"
     bordercolor="#666666"
     borderopacity="1"
     objecttolerance="10"
     gridtolerance="10"
     guidetolerance="10"
     inkscape:pageopacity="0"
     inkscape:pageshadow="2"
     inkscape:window-width="1920"
     inkscape:window-height="1017"
     id="namedview8"
     showgrid="true"
     inkscape:zoom="22.627417"
     inkscape:cx="16.517633"
     inkscape:cy="8.0437381"
     inkscape:window-x="0"
     inkscape:window-y="30"
     inkscape:window-maximized="1"
     inkscape:current-layer="svg6"
     showborder="true">
    <inkscape:grid
       type="xygrid"
       id="grid822"
       empspacing="4"
       visible="true" />
    <inkscape:grid
       type="xygrid"
       id="grid824"
       color="#ffef3f"
       opacity="0.2745098"
       empcolor="#ffef3f"
       empopacity="0.2745098"
       empspacing="2"
       spacingx="0.5"
       spacingy="0.5"
       dotted="true"
       visible="true" />
  </sodipodi:namedview>
  <g
     color="#000"
     transform="translate(-872 -552)"
     id="g4" />
  <g
     id="g821">
    <path
       id="path10"
       d="M 5 0.0625 C 3.8954305 0.0625 3 0.9579305 3 2.0625 C 3.001132 2.9788312 3.6248433 3.7771817 4.5136719 4 L 4 4 L 3 4 C 2.446 4 2 4.446 2 5 L 2 6 L 3 6 L 7 6 L 9 6 L 13 6 L 14 6 L 14 5 C 14 4.446 13.554 4 13 4 L 12 4 L 11.490234 4 C 12.377512 3.7756699 12.999319 2.9776969 13 2.0625 C 13 0.9579305 12.104569 0.0625 11 0.0625 C 9.8954305 0.0625 9 0.9579305 9 2.0625 C 9.001132 2.9788313 9.6248432 3.7771818 10.513672 4 L 10 4 L 9 4 C 8.446 4 8 4.446 8 5 C 8 4.446 7.554 4 7 4 L 6 4 L 5.4902344 4 C 6.377512 3.7756697 6.9993195 2.9776968 7 2.0625 C 7 0.9579305 6.1045695 0.0625 5 0.0625 z M 3 12 L 3 15 C 3 15.554 3.446 16 4 16 L 6 16 C 6.554 16 7 15.554 7 15 L 7 12 L 3 12 z M 9 12 L 9 15 C 9 15.554 9.446 16 10 16 L 12 16 C 12.554 16 13 15.554 13 15 L 13 12 L 9 12 z "
       style="fill:#666666;fill-opacity:1;stroke:none;stroke-width:6.66666651;stroke-opacity:1;opacity:0.75" />
    <rect
       y="7"
       x="1"
       height="4"
       width="14"
       id="rect3758"
       style="fill:#666666;fill-opacity:1;stroke:none;stroke-width:10;stroke-opacity:1" />
  </g>
</svg>
